Страховая/img/svg/young.svg

<svg width="100" height="89" viewBox="0 0 100 89" fill="none" xmlns="http://www.w3.org/2000/svg">
<path d="M98.5597 68.3068C90.8284 94.9539 74.7894 90.119 45.133 84.9529C26.0893 81.6356 0 70.8504 0 41.4168C0 11.9831 15.4295 0 45.133 0C74.8364 0 107.271 38.2818 98.5597 68.3068Z" fill="#FFF3DB"/>
<g clip-path="url(#clip0)">
<path d="M42.8898 56.4238V60.8979C42.8954 61.5912 42.3818 62.1816 41.6898 62.2708L30.7205 63.7522C25.914 64.3495 22.2924 68.4543 22.2965 73.2965V88H25.0409V73.295C25.0382 69.834 27.6246 66.9043 31.0733 66.4746L42.0509 64.9919C44.1129 64.7242 45.6533 62.9532 45.6354 60.8856V56.4238H42.8898Z" fill="#D0935A"/>
<path d="M74.2931 63.7535L63.3046 62.2708C62.6167 62.1802 62.1034 61.5912 62.1102 60.8856V56.4238H59.3644V60.8733C59.3465 62.9532 60.887 64.7242 62.9422 64.9919L73.9403 66.476C77.3739 66.9044 79.9604 69.8355 79.9577 73.2965V88H82.7035V73.2979C82.7074 68.4543 79.0859 64.3507 74.2931 63.7535Z" fill="#D0935A"/>
<path d="M67.6018 30.3389H66.2289V33.0847H67.6018C69.1161 33.0847 70.3475 34.3161 70.3475 35.8304C70.3475 37.3448 69.1161 38.5762 67.6018 38.5762H66.2289V41.322H67.6018C70.6304 41.322 73.0933 38.8591 73.0933 35.8304C73.0932 32.802 70.6303 30.3389 67.6018 30.3389Z" fill="#D0935A"/>
<path d="M37.3982 33.0847H38.7711V30.3389H37.3982C34.3696 30.3389 31.9067 32.8018 31.9067 35.8304C31.9067 38.8591 34.3696 41.322 37.3982 41.322H38.7711V38.5762H37.3982C35.8839 38.5762 34.6525 37.3448 34.6525 35.8304C34.6525 34.3161 35.8841 33.0847 37.3982 33.0847Z" fill="#D0935A"/>
<path d="M63.5956 62.7473L62.7169 64.7929C60.9625 68.8828 56.955 71.5256 52.5054 71.5256C52.5013 71.5256 52.4972 71.5256 52.4931 71.5256C48.0436 71.5256 44.0374 68.8828 42.2844 64.7929L41.4057 62.7473L38.8824 63.8306L39.761 65.8747C41.9466 70.9763 46.9425 74.2712 52.4918 74.2712C52.4959 74.2712 52.5015 74.2712 52.5068 74.2712C58.0547 74.2712 63.0533 70.9763 65.2403 65.876L66.1189 63.8304L63.5956 62.7473Z" fill="#D0935A"/>
<path d="M50.1414 39.9491L52.4575 30.7289L49.7954 30.0603L47.0496 40.9885C46.9466 41.3976 47.0387 41.8328 47.2981 42.1665C47.559 42.5001 47.9585 42.695 48.3814 42.695H53.8729V39.9493H50.1414V39.9491Z" fill="#D0935A"/>
<path d="M56.0091 44.2106C54.3973 45.011 52.5934 45.4366 50.7976 45.4407H48.3813V48.1864H50.8004C53.0191 48.1809 55.2417 47.6565 57.2297 46.6707L56.0091 44.2106Z" fill="#D0935A"/>
<path d="M68.8236 29.658L63.332 20.0478C63.0066 19.4793 62.3271 19.2213 61.7052 19.4259L49.3492 23.5445C45.4915 24.8309 37.5068 24.8473 37.4272 24.8473C36.6694 24.8473 36.0543 25.4624 36.0543 26.2202V45.0727C36.0338 47.4285 36.8752 49.7034 38.4253 51.4799L44.3575 58.2633C45.6576 59.7433 47.5329 60.5944 49.5071 60.5973H55.5231C57.4932 60.5946 59.37 59.7433 60.6672 58.2662L66.6022 51.5459C68.1522 49.7721 68.9952 47.5 68.9747 45.1469L69.0049 30.3417C69.0049 30.1014 68.943 29.8652 68.8236 29.658ZM66.2275 45.1483C66.2275 45.1538 66.2275 45.1579 66.2275 45.1633C66.2439 46.845 65.6426 48.4705 64.5402 49.7336L58.6081 56.4498C57.8269 57.3394 56.6998 57.8503 55.5204 57.8515H49.5085C48.3252 57.8501 47.1994 57.3394 46.4209 56.4525L40.4914 49.6732C39.385 48.4047 38.7836 46.7792 38.7987 45.0837V27.5725C41.3742 27.508 46.9344 27.243 50.2156 26.1489L61.5021 22.3859L66.255 30.7013L66.2275 45.1483Z" fill="#D0935A"/>
<path d="M68.7123 15.6382C66.7354 10.4542 61.7697 7.00554 56.1793 7H33.2796C32.8388 7 32.4243 7.21136 32.1647 7.57111C31.9067 7.92944 31.8352 8.38934 31.9752 8.8081L34.3708 15.9924C31.297 18.0929 29.8225 21.9727 30.8453 25.6919L33.344 33.5036L35.9606 32.6661L33.4784 24.9092C32.7083 22.1071 34.0372 19.1348 36.6374 17.8388C37.2497 17.5341 37.5449 16.8257 37.328 16.1763L35.1835 9.74562H56.1776C60.7754 9.74973 64.8431 12.6836 66.3011 17.0453C66.4138 17.3843 66.6539 17.6645 66.9697 17.8292L67.3609 18.0323C69.828 19.2582 71.1679 21.9986 70.6215 24.7018L69.0015 32.8156L71.6938 33.3538L73.3138 25.2429C74.0982 21.3658 72.1994 17.4311 68.7123 15.6382Z" fill="#D0935A"/>
<path d="M49.7542 28.966H37.3982C36.6404 28.966 36.0253 29.5811 36.0253 30.3389V34.4576C36.0253 37.4862 38.4882 39.9491 41.5169 39.9491H45.6355C48.6642 39.9491 51.1271 37.4862 51.1271 34.4576V30.3389C51.1271 29.5811 50.512 28.966 49.7542 28.966ZM48.3813 34.4576C48.3813 35.9719 47.1499 37.2034 45.6355 37.2034H41.5169C40.0026 37.2034 38.7711 35.9719 38.7711 34.4576V31.7118H48.3813V34.4576Z" fill="#D0935A"/>
<path d="M67.6018 28.966H55.2458C54.488 28.966 53.8729 29.5811 53.8729 30.3389V34.4576C53.8729 37.4862 56.3358 39.9491 59.3645 39.9491H63.4831C66.5118 39.9491 68.9747 37.4862 68.9747 34.4576V30.3389C68.9747 29.5811 68.361 28.966 67.6018 28.966ZM66.2289 34.4576C66.2289 35.9719 64.9975 37.2034 63.4831 37.2034H59.3645C57.8502 37.2034 56.6187 35.9719 56.6187 34.4576V31.7118H66.2289V34.4576Z" fill="#D0935A"/>
<path d="M55.2458 28.966H49.7542V31.7118H55.2458V28.966Z" fill="#D0935A"/>
</g>
<path d="M98.5597 68.3068C90.8284 94.9539 74.7894 90.119 45.133 84.9529C26.0893 81.6356 0 70.8504 0 41.4168C0 11.9831 15.4295 0 45.133 0C74.8364 0 107.271 38.2818 98.5597 68.3068Z" fill="#FFF3DB"/>
<g clip-path="url(#clip1)">
<path d="M42.8898 56.4238V60.8979C42.8954 61.5912 42.3818 62.1816 41.6898 62.2708L30.7205 63.7522C25.914 64.3495 22.2924 68.4543 22.2965 73.2965V88H25.0409V73.295C25.0382 69.834 27.6246 66.9043 31.0733 66.4746L42.0509 64.9919C44.1129 64.7242 45.6533 62.9532 45.6354 60.8856V56.4238H42.8898Z" fill="#D0935A"/>
<path d="M74.2931 63.7535L63.3046 62.2708C62.6167 62.1802 62.1034 61.5912 62.1102 60.8856V56.4238H59.3644V60.8733C59.3465 62.9532 60.887 64.7242 62.9422 64.9919L73.9403 66.476C77.3739 66.9044 79.9604 69.8355 79.9577 73.2965V88H82.7035V73.2979C82.7074 68.4543 79.0859 64.3507 74.2931 63.7535Z" fill="#D0935A"/>
<path d="M67.6018 30.3389H66.2289V33.0847H67.6018C69.1161 33.0847 70.3475 34.3161 70.3475 35.8304C70.3475 37.3448 69.1161 38.5762 67.6018 38.5762H66.2289V41.322H67.6018C70.6304 41.322 73.0933 38.8591 73.0933 35.8304C73.0932 32.802 70.6303 30.3389 67.6018 30.3389Z" fill="#D0935A"/>
<path d="M37.3982 33.0847H38.7711V30.3389H37.3982C34.3696 30.3389 31.9067 32.8018 31.9067 35.8304C31.9067 38.8591 34.3696 41.322 37.3982 41.322H38.7711V38.5762H37.3982C35.8839 38.5762 34.6525 37.3448 34.6525 35.8304C34.6525 34.3161 35.8841 33.0847 37.3982 33.0847Z" fill="#D0935A"/>
<path d="M63.5956 62.7473L62.7169 64.7929C60.9625 68.8828 56.955 71.5256 52.5054 71.5256C52.5013 71.5256 52.4972 71.5256 52.4931 71.5256C48.0436 71.5256 44.0374 68.8828 42.2844 64.7929L41.4057 62.7473L38.8824 63.8306L39.761 65.8747C41.9466 70.9763 46.9425 74.2712 52.4918 74.2712C52.4959 74.2712 52.5015 74.2712 52.5068 74.2712C58.0547 74.2712 63.0533 70.9763 65.2403 65.876L66.1189 63.8304L63.5956 62.7473Z" fill="#D0935A"/>
<path d="M50.1414 39.9491L52.4575 30.7289L49.7954 30.0603L47.0496 40.9885C46.9466 41.3976 47.0387 41.8328 47.2981 42.1665C47.559 42.5001 47.9585 42.695 48.3814 42.695H53.8729V39.9493H50.1414V39.9491Z" fill="#D0935A"/>
<path d="M56.0091 44.2106C54.3973 45.011 52.5934 45.4366 50.7976 45.4407H48.3813V48.1864H50.8004C53.0191 48.1809 55.2417 47.6565 57.2297 46.6707L56.0091 44.2106Z" fill="#D0935A"/>
<path d="M68.8236 29.658L63.332 20.0478C63.0066 19.4793 62.3271 19.2213 61.7052 19.4259L49.3492 23.5445C45.4915 24.8309 37.5068 24.8473 37.4272 24.8473C36.6694 24.8473 36.0543 25.4624 36.0543 26.2202V45.0727C36.0338 47.4285 36.8752 49.7034 38.4253 51.4799L44.3575 58.2633C45.6576 59.7433 47.5329 60.5944 49.5071 60.5973H55.5231C57.4932 60.5946 59.37 59.7433 60.6672 58.2662L66.6022 51.5459C68.1522 49.7721 68.9952 47.5 68.9747 45.1469L69.0049 30.3417C69.0049 30.1014 68.943 29.8652 68.8236 29.658ZM66.2275 45.1483C66.2275 45.1538 66.2275 45.1579 66.2275 45.1633C66.2439 46.845 65.6426 48.4705 64.5402 49.7336L58.6081 56.4498C57.8269 57.3394 56.6998 57.8503 55.5204 57.8515H49.5085C48.3252 57.8501 47.1994 57.3394 46.4209 56.4525L40.4914 49.6732C39.385 48.4047 38.7836 46.7792 38.7987 45.0837V27.5725C41.3742 27.508 46.9344 27.243 50.2156 26.1489L61.5021 22.3859L66.255 30.7013L66.2275 45.1483Z" fill="#D0935A"/>
<path d="M68.7123 15.6382C66.7354 10.4542 61.7697 7.00554 56.1793 7H33.2796C32.8388 7 32.4243 7.21136 32.1647 7.57111C31.9067 7.92944 31.8352 8.38934 31.9752 8.8081L34.3708 15.9924C31.297 18.0929 29.8225 21.9727 30.8453 25.6919L33.344 33.5036L35.9606 32.6661L33.4784 24.9092C32.7083 22.1071 34.0372 19.1348 36.6374 17.8388C37.2497 17.5341 37.5449 16.8257 37.328 16.1763L35.1835 9.74562H56.1776C60.7754 9.74973 64.8431 12.6836 66.3011 17.0453C66.4138 17.3843 66.6539 17.6645 66.9697 17.8292L67.3609 18.0323C69.828 19.2582 71.1679 21.9986 70.6215 24.7018L69.0015 32.8156L71.6938 33.3538L73.3138 25.2429C74.0982 21.3658 72.1994 17.4311 68.7123 15.6382Z" fill="#D0935A"/>
<path d="M49.7542 28.966H37.3982C36.6404 28.966 36.0253 29.5811 36.0253 30.3389V34.4576C36.0253 37.4862 38.4882 39.9491 41.5169 39.9491H45.6355C48.6642 39.9491 51.1271 37.4862 51.1271 34.4576V30.3389C51.1271 29.5811 50.512 28.966 49.7542 28.966ZM48.3813 34.4576C48.3813 35.9719 47.1499 37.2034 45.6355 37.2034H41.5169C40.0026 37.2034 38.7711 35.9719 38.7711 34.4576V31.7118H48.3813V34.4576Z" fill="#D0935A"/>
<path d="M67.6018 28.966H55.2458C54.488 28.966 53.8729 29.5811 53.8729 30.3389V34.4576C53.8729 37.4862 56.3358 39.9491 59.3645 39.9491H63.4831C66.5118 39.9491 68.9747 37.4862 68.9747 34.4576V30.3389C68.9747 29.5811 68.361 28.966 67.6018 28.966ZM66.2289 34.4576C66.2289 35.9719 64.9975 37.2034 63.4831 37.2034H59.3645C57.8502 37.2034 56.6187 35.9719 56.6187 34.4576V31.7118H66.2289V34.4576Z" fill="#D0935A"/>
<path d="M55.2458 28.966H49.7542V31.7118H55.2458V28.966Z" fill="#D0935A"/>
</g>
<defs>
<clipPath id="clip0">
<rect width="81" height="81" fill="white" transform="translate(12 7)"/>
</clipPath>
<clipPath id="clip1">
<rect width="81" height="81" fill="white" transform="translate(12 7)"/>
</clipPath>
</defs>
</svg>

<svg width="100" height="89" fill="none" xmlns="http://www.w3.org/2000/svg"><path d="M98.56 68.307c-7.732 26.647-23.77 21.812-53.427 16.646C26.089 81.636 0 70.85 0 41.417 0 11.983 15.43 0 45.133 0c29.703 0 62.138 38.282 53.427 68.307z" fill="#FFF3DB"/><g clip-path="url(#clip0)" fill="#D0935A"><path d="M42.89 56.424v4.474a1.374 1.374 0 01-1.2 1.373l-10.97 1.481a9.623 9.623 0 00-8.423 9.544V88h2.744V73.295a6.878 6.878 0 016.032-6.82l10.978-1.483a4.116 4.116 0 003.584-4.106v-4.462H42.89zm31.403 7.33L63.305 62.27a1.376 1.376 0 01-1.195-1.385v-4.462h-2.746v4.45a4.12 4.12 0 003.578 4.118l10.998 1.484a6.876 6.876 0 016.018 6.82V88h2.746V73.298c.003-4.844-3.618-8.947-8.41-9.544zm-6.691-33.415h-1.373v2.746h1.373a2.748 2.748 0 012.745 2.745 2.748 2.748 0 01-2.745 2.746h-1.373v2.746h1.373a5.497 5.497 0 005.491-5.492 5.497 5.497 0 00-5.491-5.491zm-30.204 2.746h1.373v-2.746h-1.373a5.497 5.497 0 00-5.491 5.491 5.497 5.497 0 005.491 5.492h1.373v-2.746h-1.373a2.748 2.748 0 01-2.745-2.746 2.749 2.749 0 012.745-2.745z"/><path d="M63.596 62.747l-.88 2.046a11.1 11.1 0 01-10.21 6.733h-.013c-4.45 0-8.456-2.643-10.209-6.733l-.878-2.046-2.524 1.084.879 2.044a13.832 13.832 0 0012.73 8.396h.016a13.84 13.84 0 0012.733-8.395l.879-2.046-2.523-1.083zM50.141 39.95l2.317-9.221-2.663-.669-2.745 10.93a1.375 1.375 0 001.331 1.706h5.492V39.95H50.14zm5.869 4.26a11.848 11.848 0 01-5.212 1.23H48.38v2.746h2.42a14.631 14.631 0 006.429-1.515l-1.22-2.46z"/><path d="M68.824 29.658l-5.492-9.61a1.376 1.376 0 00-1.627-.622L49.35 23.545c-3.857 1.286-11.842 1.302-11.922 1.302-.758 0-1.373.615-1.373 1.373v18.853a9.608 9.608 0 002.371 6.407l5.933 6.783a6.867 6.867 0 005.15 2.334h6.015a6.864 6.864 0 005.144-2.33l5.935-6.721a9.589 9.589 0 002.373-6.4l.03-14.804c0-.24-.062-.477-.181-.684zm-2.596 15.49v.015a6.847 6.847 0 01-1.688 4.57l-5.932 6.717a4.12 4.12 0 01-3.088 1.401h-6.012a4.116 4.116 0 01-3.087-1.398l-5.93-6.78a6.872 6.872 0 01-1.692-4.59v-17.51c2.575-.065 8.135-.33 11.417-1.424l11.286-3.763 4.753 8.315-.027 14.447z"/><path d="M68.712 15.638A13.415 13.415 0 0056.18 7h-22.9a1.374 1.374 0 00-1.304 1.808l2.396 7.184c-3.074 2.1-4.549 5.98-3.526 9.7l2.499 7.812 2.617-.838-2.483-7.757a6.107 6.107 0 013.16-7.07 1.371 1.371 0 00.69-1.663l-2.145-6.43h20.995a10.675 10.675 0 0110.123 7.3c.113.338.353.619.669.783l.39.203a6.103 6.103 0 013.261 6.67l-1.62 8.114 2.693.538 1.62-8.111c.784-3.877-1.115-7.812-4.602-9.605z"/><path d="M49.754 28.966H37.398c-.758 0-1.373.615-1.373 1.373v4.119a5.497 5.497 0 005.492 5.491h4.118a5.497 5.497 0 005.492-5.491v-4.12c0-.757-.615-1.372-1.373-1.372zm-1.373 5.492a2.749 2.749 0 01-2.745 2.745h-4.12a2.749 2.749 0 01-2.745-2.745v-2.746h9.61v2.746zm19.221-5.492H55.246c-.758 0-1.373.615-1.373 1.373v4.119a5.497 5.497 0 005.492 5.491h4.118a5.497 5.497 0 005.492-5.491v-4.12c0-.757-.614-1.372-1.373-1.372zm-1.373 5.492a2.749 2.749 0 01-2.746 2.745h-4.118a2.749 2.749 0 01-2.746-2.745v-2.746h9.61v2.746z"/><path d="M55.246 28.966h-5.492v2.746h5.492v-2.746z"/></g><path d="M98.56 68.307c-7.732 26.647-23.77 21.812-53.427 16.646C26.089 81.636 0 70.85 0 41.417 0 11.983 15.43 0 45.133 0c29.703 0 62.138 38.282 53.427 68.307z" fill="#FFF3DB"/><g clip-path="url(#clip1)" fill="#D0935A"><path d="M42.89 56.424v4.474a1.374 1.374 0 01-1.2 1.373l-10.97 1.481a9.623 9.623 0 00-8.423 9.544V88h2.744V73.295a6.878 6.878 0 016.032-6.82l10.978-1.483a4.116 4.116 0 003.584-4.106v-4.462H42.89zm31.403 7.33L63.305 62.27a1.376 1.376 0 01-1.195-1.385v-4.462h-2.746v4.45a4.12 4.12 0 003.578 4.118l10.998 1.484a6.876 6.876 0 016.018 6.82V88h2.746V73.298c.003-4.844-3.618-8.947-8.41-9.544zm-6.691-33.415h-1.373v2.746h1.373a2.748 2.748 0 012.745 2.745 2.748 2.748 0 01-2.745 2.746h-1.373v2.746h1.373a5.497 5.497 0 005.491-5.492 5.497 5.497 0 00-5.491-5.491zm-30.204 2.746h1.373v-2.746h-1.373a5.497 5.497 0 00-5.491 5.491 5.497 5.497 0 005.491 5.492h1.373v-2.746h-1.373a2.748 2.748 0 01-2.745-2.746 2.749 2.749 0 012.745-2.745z"/><path d="M63.596 62.747l-.88 2.046a11.1 11.1 0 01-10.21 6.733h-.013c-4.45 0-8.456-2.643-10.209-6.733l-.878-2.046-2.524 1.084.879 2.044a13.832 13.832 0 0012.73 8.396h.016a13.84 13.84 0 0012.733-8.395l.879-2.046-2.523-1.083zM50.141 39.95l2.317-9.221-2.663-.669-2.745 10.93a1.375 1.375 0 001.331 1.706h5.492V39.95H50.14zm5.869 4.26a11.848 11.848 0 01-5.212 1.23H48.38v2.746h2.42a14.631 14.631 0 006.429-1.515l-1.22-2.46z"/><path d="M68.824 29.658l-5.492-9.61a1.376 1.376 0 00-1.627-.622L49.35 23.545c-3.857 1.286-11.842 1.302-11.922 1.302-.758 0-1.373.615-1.373 1.373v18.853a9.608 9.608 0 002.371 6.407l5.933 6.783a6.867 6.867 0 005.15 2.334h6.015a6.864 6.864 0 005.144-2.33l5.935-6.721a9.589 9.589 0 002.373-6.4l.03-14.804c0-.24-.062-.477-.181-.684zm-2.596 15.49v.015a6.847 6.847 0 01-1.688 4.57l-5.932 6.717a4.12 4.12 0 01-3.088 1.401h-6.012a4.116 4.116 0 01-3.087-1.398l-5.93-6.78a6.872 6.872 0 01-1.692-4.59v-17.51c2.575-.065 8.135-.33 11.417-1.424l11.286-3.763 4.753 8.315-.027 14.447z"/><path d="M68.712 15.638A13.415 13.415 0 0056.18 7h-22.9a1.374 1.374 0 00-1.304 1.808l2.396 7.184c-3.074 2.1-4.549 5.98-3.526 9.7l2.499 7.812 2.617-.838-2.483-7.757a6.107 6.107 0 013.16-7.07 1.371 1.371 0 00.69-1.663l-2.145-6.43h20.995a10.675 10.675 0 0110.123 7.3c.113.338.353.619.669.783l.39.203a6.103 6.103 0 013.261 6.67l-1.62 8.114 2.693.538 1.62-8.111c.784-3.877-1.115-7.812-4.602-9.605z"/><path d="M49.754 28.966H37.398c-.758 0-1.373.615-1.373 1.373v4.119a5.497 5.497 0 005.492 5.491h4.118a5.497 5.497 0 005.492-5.491v-4.12c0-.757-.615-1.372-1.373-1.372zm-1.373 5.492a2.749 2.749 0 01-2.745 2.745h-4.12a2.749 2.749 0 01-2.745-2.745v-2.746h9.61v2.746zm19.221-5.492H55.246c-.758 0-1.373.615-1.373 1.373v4.119a5.497 5.497 0 005.492 5.491h4.118a5.497 5.497 0 005.492-5.491v-4.12c0-.757-.614-1.372-1.373-1.372zm-1.373 5.492a2.749 2.749 0 01-2.746 2.745h-4.118a2.749 2.749 0 01-2.746-2.745v-2.746h9.61v2.746z"/><path d="M55.246 28.966h-5.492v2.746h5.492v-2.746z"/></g><defs><clipPath id="clip0"><path fill="#fff" transform="translate(12 7)" d="M0 0h81v81H0z"/></clipPath><clipPath id="clip1"><path fill="#fff" transform="translate(12 7)" d="M0 0h81v81H0z"/></clipPath></defs></svg>
